X:7877
T:Norwegian folk song
C:anon.
O:Norway
B:Gustav Lange: Praktisk Violinskole, I. Del
Z:Transcribed by Frank Nordberg - http://www.musicaviva.com
F:http://abc.musicaviva.com/tunes/norway/norwegian-song-02/norwegian-song-02-1.abc
M:3/4
L:1/8
K:F#m
z2 z>C F>G|A2 G>F A>B|c2-c>B A>c|e2 e>c d>B|
c2 Az/C/ F>G|A2 G>F A>B|c2- c>B A>c|e2 e>c d>B|c2 A>c d>c|
B2 B>B c>B|A2 A>A B>A|G2 G>G A>F|c2- cz/^E/ F>F|F3 z z2|]
W:
W:
W:  From Musica Viva - http://www.musicaviva.com
W:  the Internet center for free sheet music downloads.
